X:401
T: EIN LEBEN WIE IM PARADIES
N: F0734
O: Europa, Mitteleuropa, Deutschland
R: Geselligkeits -, Trink - Lied
M: 6/8
L: 1/16
K: D
D2 | F4F2A4A2 | d3AB2A4
F2 | G4A2F4D2 | E6z4
A2 | ^G4E2A4c2 | B3cd2c4
A2 | d3cB2A4^G2 | A6z4
A2 | G4A2c4A2 | d4A2F4
A2 | G4A2F3GA2 | E4z6
A2 | F4A2d4e2 | f3dB2A4
d2 | e4e2c3Bc2 | d4c2=c2B2
G2 | A4A2A3GE2 | D6z4

